packages/core/src/svgs/strp.svg

<svg width="24" height="24" viewBox="0 0 24 24" fill="none" xmlns="http://www.w3.org/2000/svg">
<g clip-path="url(#clip0_31_19428)">
<path d="M0 0H24V24H0V0Z" fill="#F0F3FA"/>
<path d="M7.28568 16.7144C5.96997 15.523 5.14282 13.7916 5.14282 11.8673C5.14282 9.59585 6.29997 7.59014 8.04425 6.42871C7.69282 7.213 7.28568 8.34871 7.28568 9.26585C7.28568 10.783 8.57139 13.1659 10.7143 13.603L11.1428 12.9516C11.4985 13.4573 12.4285 14.5544 13.2857 14.9016C12.8919 15.3425 12.3782 15.6592 11.8074 15.8129C11.2366 15.9667 10.6333 15.9508 10.0714 15.7673L10.2857 15.1201C10.1371 14.9187 9.94344 14.7549 9.72017 14.6418C9.49691 14.5286 9.25025 14.4694 8.99997 14.4687C8.14282 14.4687 7.28568 15.1201 7.28568 16.2044V16.7144Z" fill="url(#paint0_linear_31_19428)"/>
<path d="M7.29427 9.01728C6.45131 10.1474 5.9972 11.5203 5.99999 12.9301C5.99999 14.2416 6.3857 15.4587 7.04142 16.483C6.43728 15.8761 5.95865 15.156 5.63289 14.364C5.30712 13.5721 5.1406 12.7236 5.14284 11.8673C5.14284 9.59585 6.29999 7.59014 8.04427 6.42871C7.65588 7.24531 7.40258 8.11953 7.29427 9.01728Z" fill="url(#paint1_linear_31_19428)"/>
<path d="M16.7142 7.28564C18.0299 8.47707 18.8571 10.2085 18.8571 12.1328C18.8571 14.4042 17.6999 16.4099 15.9557 17.5714C16.3071 16.7871 16.7142 15.6514 16.7142 14.7342C16.7142 13.2171 15.4285 10.8342 13.2857 10.3971L12.8571 11.0485C12.5014 10.5428 11.5714 9.44564 10.7142 9.0985C11.108 8.65756 11.6217 8.34087 12.1925 8.18713C12.7633 8.03339 13.3666 8.04926 13.9285 8.23279L13.7142 8.87993C13.8557 9.09422 14.3142 9.53136 14.9999 9.53136C15.8571 9.53136 16.7142 8.87993 16.7142 7.79564V7.28564Z" fill="url(#paint2_linear_31_19428)"/>
<path d="M16.7057 14.9828C17.52 13.8942 18 12.5399 18 11.0699C18 9.75852 17.6143 8.54138 16.9585 7.51709C17.5627 8.12403 18.0413 8.84406 18.3671 9.63605C18.6928 10.428 18.8594 11.2764 18.8571 12.1328C18.8571 14.4042 17.7 16.4099 15.9557 17.5714C16.3441 16.7548 16.5974 15.8806 16.7057 14.9828Z" fill="url(#paint3_linear_31_19428)"/>
</g>
<defs>
<linearGradient id="paint0_linear_31_19428" x1="5.14282" y1="12.9301" x2="13.2985" y2="15.0516" gradientUnits="userSpaceOnUse">
<stop stop-color="#0367AB"/>
<stop offset="1" stop-color="#0C99D7"/>
</linearGradient>
<linearGradient id="paint1_linear_31_19428" x1="7.71427" y1="6.64728" x2="5.96142" y2="15.0901" gradientUnits="userSpaceOnUse">
<stop stop-color="#076EB0"/>
<stop offset="1" stop-color="#199CD4"/>
</linearGradient>
<linearGradient id="paint2_linear_31_19428" x1="18.8571" y1="11.0699" x2="10.7014" y2="8.9485" gradientUnits="userSpaceOnUse">
<stop stop-color="#FBB20B"/>
<stop offset="1" stop-color="#FEFF42"/>
</linearGradient>
<linearGradient id="paint3_linear_31_19428" x1="16.2857" y1="17.3528" x2="18.0385" y2="8.90995" gradientUnits="userSpaceOnUse">
<stop stop-color="#F38F12"/>
<stop offset="1" stop-color="#F09508"/>
</linearGradient>
<clipPath id="clip0_31_19428">
<rect width="24" height="24" fill="white"/>
</clipPath>
</defs>
</svg>

<svg xmlns="http://www.w3.org/2000/svg" width="24" height="24" fill="none" viewBox="0 0 24 24"><g clip-path="url(#a)"><path fill="#F0F3FA" d="M0 0h24v24H0z"/><path fill="url(#b)" d="M7.286 16.714a6.52 6.52 0 0 1-2.143-4.847A6.53 6.53 0 0 1 8.044 6.43c-.351.784-.758 1.92-.758 2.837 0 1.517 1.285 3.9 3.428 4.337l.429-.651c.355.505 1.285 1.602 2.143 1.95a3.04 3.04 0 0 1-3.215.865l.215-.647A1.6 1.6 0 0 0 9 14.47c-.857 0-1.714.651-1.714 1.735z"/><path fill="url(#c)" d="M7.294 9.017A6.52 6.52 0 0 0 6 12.93c0 1.312.386 2.529 1.041 3.553a6.52 6.52 0 0 1-1.898-4.616A6.53 6.53 0 0 1 8.044 6.43a8.4 8.4 0 0 0-.75 2.588"/><path fill="url(#d)" d="M16.714 7.286a6.52 6.52 0 0 1 2.143 4.847 6.53 6.53 0 0 1-2.901 5.438c.351-.784.758-1.92.758-2.837 0-1.517-1.285-3.9-3.428-4.337l-.429.652c-.356-.506-1.286-1.603-2.143-1.95a3.04 3.04 0 0 1 3.214-.866l-.214.647c.142.214.6.651 1.286.651.857 0 1.714-.651 1.714-1.735z"/><path fill="url(#e)" d="M16.706 14.983A6.5 6.5 0 0 0 18 11.07a6.57 6.57 0 0 0-1.041-3.553 6.52 6.52 0 0 1 1.898 4.616 6.53 6.53 0 0 1-2.901 5.438c.388-.816.641-1.69.75-2.588"/></g><defs><linearGradient id="b" x1="5.143" x2="13.299" y1="12.93" y2="15.052" gradientUnits="userSpaceOnUse"><stop stop-color="#0367AB"/><stop offset="1" stop-color="#0C99D7"/></linearGradient><linearGradient id="c" x1="7.714" x2="5.961" y1="6.647" y2="15.09" gradientUnits="userSpaceOnUse"><stop stop-color="#076EB0"/><stop offset="1" stop-color="#199CD4"/></linearGradient><linearGradient id="d" x1="18.857" x2="10.701" y1="11.07" y2="8.948" gradientUnits="userSpaceOnUse"><stop stop-color="#FBB20B"/><stop offset="1" stop-color="#FEFF42"/></linearGradient><linearGradient id="e" x1="16.286" x2="18.038" y1="17.353" y2="8.91" gradientUnits="userSpaceOnUse"><stop stop-color="#F38F12"/><stop offset="1" stop-color="#F09508"/></linearGradient><clipPath id="a"><path fill="#fff" d="M0 0h24v24H0z"/></clipPath></defs></svg>
